X: 549
T: Northern Frisk
M:3/2
L:1/8
S: 8: MCJLSH3 http://www.cpartington.plus.com/links/Walsh.abc
Z: Pete Stewart 2004
B: Walsh "Third Book of the most Celebrated jiggs, Lancashire hornpipes, ..."
K:Amin
A2e4A2ecBA | GABcd2G2B2AG | A2e4A2ecBA | E2A4c2B2A2 ||
edcB ABcd ecBA | GABc dcBA BcdB | AecA ceac BA^G^F | E2A4c2B2A2 ||
e2a2d2g2c2f2 | BcdB GABG BcdB | ea^gb edcB ABcA | E2A4c2B2A2 ||
e2e2e2e2e4 | dcBA G2d2BcdB | eaec AcBA ^GAB^G | E2A4c2B2A2 ||

%%sep 1 1 500
%%sep 1 1 500
